packages/foundations/assets/icons/functional/images/environment/water_drop.svg

<svg xmlns="http://www.w3.org/2000/svg" width="32" height="32" fill="none"><path fill="#1A1C1F" fill-rule="evenodd" d="M15.377 2.103c-.303.095-.536.247-.796.52-.291.306-6.668 9.852-7.169 10.732-.89 1.565-1.456 3.084-1.74 4.672-.112.621-.126 2.152-.027 2.853.218 1.549.718 3.018 1.428 4.201 1.98 3.295 5.661 5.152 9.687 4.886 5.002-.33 8.812-3.875 9.567-8.9.128-.85.128-2.243.001-3.007-.207-1.242-.678-2.636-1.317-3.9-.423-.838-1.092-1.952-1.345-2.242-.369-.421-.886-.503-1.332-.209-.288.19-.431.501-.404.88.02.265.07.38.401.91.54.868.846 1.426 1.134 2.071.637 1.421.895 2.407.946 3.603.145 3.427-1.572 6.483-4.447 7.916a8.5 8.5 0 0 1-2.145.736c-.609.129-.78.142-1.819.142s-1.21-.013-1.819-.142c-2.26-.479-4.011-1.644-5.215-3.47-.962-1.459-1.455-3.313-1.376-5.182.05-1.183.323-2.246.912-3.55.472-1.045.885-1.716 3.285-5.329a599 599 0 0 0 3.197-4.854c.481-.748.892-1.38.913-1.404.02-.025.56.731 1.199 1.68 2.423 3.597 2.464 3.655 2.712 3.775.26.126.6.141.848.037.387-.162.668-.679.592-1.089-.035-.188-.995-1.657-3.151-4.821-.761-1.115-.967-1.323-1.504-1.51-.282-.098-.908-.101-1.216-.005"/></svg>

<svg width="32" height="32" viewBox="0 0 32 32" fill="none" xmlns="http://www.w3.org/2000/svg"><path d="M15.377 2.103 C 15.074 2.198,14.841 2.350,14.581 2.623 C 14.290 2.929,7.913 12.475,7.412 13.355 C 6.522 14.920,5.956 16.439,5.672 18.027 C 5.560 18.648,5.546 20.179,5.645 20.880 C 5.863 22.429,6.363 23.898,7.073 25.081 C 9.053 28.376,12.734 30.233,16.760 29.967 C 21.762 29.637,25.572 26.092,26.327 21.067 C 26.455 20.217,26.455 18.824,26.328 18.060 C 26.121 16.818,25.650 15.424,25.011 14.160 C 24.588 13.322,23.919 12.208,23.666 11.918 C 23.297 11.497,22.780 11.415,22.334 11.709 C 22.046 11.899,21.903 12.210,21.930 12.589 C 21.950 12.854,22.000 12.969,22.331 13.499 C 22.871 14.367,23.177 14.925,23.465 15.570 C 24.102 16.991,24.360 17.977,24.411 19.173 C 24.556 22.600,22.839 25.656,19.964 27.089 C 19.271 27.434,18.637 27.652,17.819 27.825 C 17.210 27.954,17.039 27.967,16.000 27.967 C 14.961 27.967,14.790 27.954,14.181 27.825 C 11.921 27.346,10.170 26.181,8.966 24.355 C 8.004 22.896,7.511 21.042,7.590 19.173 C 7.640 17.990,7.913 16.927,8.502 15.623 C 8.974 14.578,9.387 13.907,11.787 10.294 C 13.064 8.372,14.502 6.188,14.984 5.440 C 15.465 4.692,15.876 4.060,15.897 4.036 C 15.917 4.011,16.457 4.767,17.096 5.716 C 19.519 9.313,19.560 9.371,19.808 9.491 C 20.068 9.617,20.408 9.632,20.656 9.528 C 21.043 9.366,21.324 8.849,21.248 8.439 C 21.213 8.251,20.253 6.782,18.097 3.618 C 17.336 2.503,17.130 2.295,16.593 2.108 C 16.311 2.010,15.685 2.007,15.377 2.103 " fill="#1A1C1F" stroke="none" fill-rule="evenodd"></path></svg>
